X: 10846
T: Dregs Of Birch, The
R: reel
M: 4/4
K: Amajor
|:c2 BA cefe|AcBA F2 AB|ceag feAB|cecB AFF2|
c2 BA cefg|agfe aeAB|cAAc B2 FE|1 FA A3 AB:|2 FA A3 fe||
|:f2 ef agfe|accB AFF2|f2ef agab|agfe a3e|
fefg agfe|accB AFAB|cAAc B2 FE|1 FA A3 fe:|2 FA A3 AB||

